jsapp/svg-icons/map-view.svg

<?xml version="1.0" encoding="UTF-8"?>
<svg width="40px" height="40px" viewBox="0 0 40 40" version="1.1" xmlns="http://www.w3.org/2000/svg" xmlns:xlink="http://www.w3.org/1999/xlink">
    <!-- Generator: Sketch 50.2 (55047) - http://www.bohemiancoding.com/sketch -->
    <title>Icons/map-view</title>
    <desc>Created with Sketch.</desc>
    <defs>
        <path d="M20,27.9194 L17,25.5194 L17,14.0814 L20,16.4804 L20,27.9194 Z M11,16.5354 L15,13.8684 L15,25.4644 L11,28.1324 L11,16.5354 Z M27.555,26.8314 C27.833,26.6464 28,26.3344 28,26.0004 L28,23.0004 L26,23.0004 L26,25.4644 L22,28.1314 L22,16.0004 C22,15.6964 21.862,15.4094 21.625,15.2194 L16.625,11.2194 C16.483,11.1064 16.252,11.0154 16.034,11.0084 C15.819,11.0024 15.595,11.0684 15.445,11.1684 L9.445,15.1684 C9.167,15.3534 9,15.6654 9,16.0004 L9,30.0004 C9,30.3694 9.203,30.7084 9.528,30.8814 C9.676,30.9614 9.838,31.0004 10,31.0004 C10.194,31.0004 10.387,30.9434 10.555,30.8314 L15.946,27.2374 L20.376,30.7804 C20.556,30.9254 20.777,31.0004 21,31.0004 C21.266,31.0004 21.395,30.9264 21.549,30.8234 L27.555,26.8314 Z M27,11 C28.103,11 29,11.898 29,13 C29,14.615 27.891,16.778 27,18.214 C26.108,16.781 25,14.62 25,13 C25,11.898 25.897,11 27,11 L27,11 Z M27,21.667 L27.8,20.6 C27.931,20.426 31,16.295 31,13 C31,10.794 29.206,9 27,9 C24.794,9 23,10.794 23,13 C23,16.295 26.069,20.426 26.2,20.6 L27,21.667 Z M28,13 C28,12.447 27.553,12 27,12 C26.447,12 26,12.447 26,13 C26,13.552 26.447,14 27,14 C27.553,14 28,13.552 28,13" id="path-1"></path>
    </defs>
    <g id="Icons/map-view" stroke="none" stroke-width="1" fill="none" fill-rule="evenodd">
        <mask id="mask-2" fill="white">
            <use xlink:href="#path-1"></use>
        </mask>
        <use id="Mask" fill="#000000" xlink:href="#path-1"></use>
    </g>
</svg>

<svg height="40" viewBox="0 0 40 40" width="40" xmlns="http://www.w3.org/2000/svg"><path d="m20 27.9194-3-2.4v-11.438l3 2.399zm-9-11.384 4-2.667v11.596l-4 2.668zm16.555 10.296c.278-.185.445-.497.445-.831v-3h-2v2.464l-4 2.667v-12.131c0-.304-.138-.591-.375-.781l-5-4c-.142-.113-.373-.204-.591-.211-.215-.006-.439.06-.589.16l-6 4c-.278.185-.445.497-.445.832v14c0 .369.203.708.528.881.148.08.31.119.472.119.194 0 .387-.057.555-.169l5.391-3.594 4.43 3.543c.18.145.401.22.624.22.266 0 .395-.074.549-.177zm-.555-15.8314c1.103 0 2 .898 2 2 0 1.615-1.109 3.778-2 5.214-.892-1.433-2-3.594-2-5.214 0-1.102.897-2 2-2zm0 10.667.8-1.067c.131-.174 3.2-4.305 3.2-7.6 0-2.206-1.794-4-4-4s-4 1.794-4 4c0 3.295 3.069 7.426 3.2 7.6zm1-8.667c0-.553-.447-1-1-1s-1 .447-1 1c0 .552.447 1 1 1s1-.448 1-1" fill-rule="evenodd"/></svg>
